static/image/Adapter-Composition.svg

<?xml version="1.0" encoding="utf-8"?>
<!DOCTYPE svg PUBLIC "-//W3C//DTD SVG 1.1//EN" "http://www.w3.org/Graphics/SVG/1.1/DTD/svg11.dtd">
<svg height="302" viewBox="-0.5 -0.5 732 302" width="732" xmlns="http://www.w3.org/2000/svg" xmlns:xlink="http://www.w3.org/1999/xlink">
 <defs>
  <style>
   @import url(https://fonts.googleapis.com/css?family=Fira+Code);
  </style>
  <style>
   svg {
           color: gray; 
           font-size: 14px; 
           font-family: "Fira Code";
       } 
       .none-stroke {
           fill: none; 
           stroke: gray;
       } 
       .fill-stroke {
           fill: #333; 
           stroke: gray;
       } 
       foreignObject {
           width: 100%; 
           height: 100%;
       } 
       .leftdiv {
           overflow: visible; 
           text-align: left;
       } 
       .centerdiv {
           box-sizing:border-box; 
           text-align:center
       } 
       .normaldiv {
           display:inline-block; 
           line-height:1.2; 
           white-space:normal; 
           overflow-wrap:normal
       } 
       .flexcenter {
           display:flex; 
           align-items:unsafe center; 
           justify-content:unsafe center;
       }
       .flexstart {
           display:flex; 
           align-items:unsafe center; 
           justify-content:unsafe flex-start;
       } 
       .flexzero {height: 1px;}
  </style>
 </defs>
 <path d="M160 38h20l15.53-.39" fill="none" pointer-events="stroke" stroke="gray" stroke-miterlimit="10" stroke-width="2"/>
 <path d="m185.92 43.85 11.84-6.29-12.14-5.7" fill="none" pointer-events="all" stroke="gray" stroke-miterlimit="10" stroke-width="2"/>
 <path d="M0 13h160v50H0z" fill="none" pointer-events="all" stroke="gray"/>
 <foreignObject height="100%" pointer-events="none" requiredFeatures="http://www.w3.org/TR/SVG11/feature#Extensibility" style="overflow:visible;text-align:left" width="100%">
  <div style="display:flex;align-items:unsafe center;justify-content:unsafe center;width:158px;height:1px;padding-top:38px;margin-left:1px" xmlns="http://www.w3.org/1999/xhtml">
   <div data-drawio-colors="color: rgb(0, 0, 0);" style="box-sizing:border-box;font-size:0;text-align:center">
    <div style='display:inline-block;font-size:14px;font-family:"Fira Code";color:#000;line-height:1.2;pointer-events:all;white-space:normal;overflow-wrap:normal'>
     <font color="gray" style="font-size:14px">
      <span style="font-size:14px">
       Client
       <br style="font-size:14px"/>
      </span>
     </font>
    </div>
   </div>
  </div>
 </foreignObject>
 <path d="M200 0h180v50H200z" fill="none" pointer-events="all" stroke="gray"/>
 <foreignObject height="100%" pointer-events="none" requiredFeatures="http://www.w3.org/TR/SVG11/feature#Extensibility" style="overflow:visible;text-align:left" width="100%">
  <div style="display:flex;align-items:unsafe center;justify-content:unsafe center;width:178px;height:1px;padding-top:25px;margin-left:201px" xmlns="http://www.w3.org/1999/xhtml">
   <div data-drawio-colors="color: rgb(0, 0, 0);" style="box-sizing:border-box;font-size:0;text-align:center">
    <div style='display:inline-block;font-size:14px;font-family:"Fira Code";color:#000;line-height:1.2;pointer-events:all;white-space:normal;overflow-wrap:normal'>
     <font color="gray" style="font-size:14px">
      <span style="font-size:14px">
       &lt;&lt;interface&gt;&gt;
       <br style="font-size:14px"/>
       Client Interface
       <br style="font-size:14px"/>
      </span>
     </font>
    </div>
   </div>
  </div>
 </foreignObject>
 <path d="M200 50h180v30H200z" fill="none" pointer-events="all" stroke="gray"/>
 <foreignObject height="100%" pointer-events="none" requiredFeatures="http://www.w3.org/TR/SVG11/feature#Extensibility" style="overflow:visible;text-align:left" width="100%">
  <div style="display:flex;align-items:unsafe center;justify-content:unsafe flex-start;width:178px;height:1px;padding-top:65px;margin-left:202px" xmlns="http://www.w3.org/1999/xhtml">
   <div data-drawio-colors="color: rgb(0, 0, 0);" style="box-sizing:border-box;font-size:0;text-align:left">
    <div style='display:inline-block;font-size:14px;font-family:"Fira Code";color:#000;line-height:1.2;pointer-events:all;white-space:normal;overflow-wrap:normal'>
     <div style="font-size:14px">
      <font color="gray" style="font-size:14px">
       <span style="font-size:14px">
        + method(data)
       </span>
      </font>
     </div>
    </div>
   </div>
  </div>
 </foreignObject>
 <path d="M290 120V94.24" fill="none" pointer-events="stroke" stroke="gray" stroke-dasharray="6 6" stroke-miterlimit="10" stroke-width="2"/>
 <path d="m290 82.24 6 12h-12Z" fill="none" pointer-events="all" stroke="gray" stroke-miterlimit="10" stroke-width="2"/>
 <path d="M200 120h180v30H200z" fill="none" pointer-events="all" stroke="gray"/>
 <foreignObject height="100%" pointer-events="none" requiredFeatures="http://www.w3.org/TR/SVG11/feature#Extensibility" style="overflow:visible;text-align:left" width="100%">
  <div style="display:flex;align-items:unsafe center;justify-content:unsafe center;width:178px;height:1px;padding-top:135px;margin-left:201px" xmlns="http://www.w3.org/1999/xhtml">
   <div data-drawio-colors="color: rgb(0, 0, 0);" style="box-sizing:border-box;font-size:0;text-align:center">
    <div style='display:inline-block;font-size:14px;font-family:"Fira Code";color:#000;line-height:1.2;pointer-events:all;white-space:normal;overflow-wrap:normal'>
     <font color="gray" style="font-size:14px">
      <span style="font-size:14px">
       Adapter
       <br style="font-size:14px"/>
      </span>
     </font>
    </div>
   </div>
  </div>
 </foreignObject>
 <path d="M200 150h180v30H200z" fill="none" pointer-events="all" stroke="gray"/>
 <foreignObject height="100%" pointer-events="none" requiredFeatures="http://www.w3.org/TR/SVG11/feature#Extensibility" style="overflow:visible;text-align:left" width="100%">
  <div style="display:flex;align-items:unsafe center;justify-content:unsafe flex-start;width:178px;height:1px;padding-top:165px;margin-left:202px" xmlns="http://www.w3.org/1999/xhtml">
   <div data-drawio-colors="color: rgb(0, 0, 0);" style="box-sizing:border-box;font-size:0;text-align:left">
    <div style='display:inline-block;font-size:14px;font-family:"Fira Code";color:#000;line-height:1.2;pointer-events:all;white-space:normal;overflow-wrap:normal'>
     <div style="font-size:14px">
      <font color="gray" style="font-size:14px">
       <span style="font-size:14px">
        - adaptee: Service
       </span>
      </font>
     </div>
    </div>
   </div>
  </div>
 </foreignObject>
 <path d="M200 180h180v30H200z" fill="none" pointer-events="all" stroke="gray"/>
 <foreignObject height="100%" pointer-events="none" requiredFeatures="http://www.w3.org/TR/SVG11/feature#Extensibility" style="overflow:visible;text-align:left" width="100%">
  <div style="display:flex;align-items:unsafe center;justify-content:unsafe flex-start;width:178px;height:1px;padding-top:195px;margin-left:202px" xmlns="http://www.w3.org/1999/xhtml">
   <div data-drawio-colors="color: rgb(0, 0, 0);" style="box-sizing:border-box;font-size:0;text-align:left">
    <div style='display:inline-block;font-size:14px;font-family:"Fira Code";color:#000;line-height:1.2;pointer-events:all;white-space:normal;overflow-wrap:normal'>
     <div style="font-size:14px">
      <font color="gray" style="font-size:14px">
       <span style="font-size:14px">
        + method(data)
       </span>
      </font>
     </div>
    </div>
   </div>
  </div>
 </foreignObject>
 <path d="M460 120h270v30H460z" fill="none" pointer-events="all" stroke="gray"/>
 <foreignObject height="100%" pointer-events="none" requiredFeatures="http://www.w3.org/TR/SVG11/feature#Extensibility" style="overflow:visible;text-align:left" width="100%">
  <div style="display:flex;align-items:unsafe center;justify-content:unsafe center;width:268px;height:1px;padding-top:135px;margin-left:461px" xmlns="http://www.w3.org/1999/xhtml">
   <div data-drawio-colors="color: rgb(0, 0, 0);" style="box-sizing:border-box;font-size:0;text-align:center">
    <div style='display:inline-block;font-size:14px;font-family:"Fira Code";color:#000;line-height:1.2;pointer-events:all;white-space:normal;overflow-wrap:normal'>
     <font color="gray" style="font-size:14px">
      <span style="font-size:14px">
       Service
       <br style="font-size:14px"/>
      </span>
     </font>
    </div>
   </div>
  </div>
 </foreignObject>
 <path d="M455.53 165h-59.56" fill="none" pointer-events="stroke" stroke="gray" stroke-miterlimit="10" stroke-width="2"/>
 <path d="m443.76 172 14-7-14-7M381.97 165l7-4.12 7 4.12-7 4.12Z" fill="none" pointer-events="all" stroke="gray" stroke-miterlimit="10" stroke-width="2"/>
 <path d="M460 150h270v30H460z" fill="none" pointer-events="all" stroke="gray"/>
 <foreignObject height="100%" pointer-events="none" requiredFeatures="http://www.w3.org/TR/SVG11/feature#Extensibility" style="overflow:visible;text-align:left" width="100%">
  <div style="display:flex;align-items:unsafe center;justify-content:unsafe flex-start;width:268px;height:1px;padding-top:165px;margin-left:462px" xmlns="http://www.w3.org/1999/xhtml">
   <div data-drawio-colors="color: rgb(0, 0, 0);" style="box-sizing:border-box;font-size:0;text-align:left">
    <div style='display:inline-block;font-size:14px;font-family:"Fira Code";color:#000;line-height:1.2;pointer-events:all;white-space:normal;overflow-wrap:normal'>
     <div style="font-size:14px">
      <font color="gray" style="font-size:14px">
       <span style="font-size:14px">
        ...
       </span>
      </font>
     </div>
    </div>
   </div>
  </div>
 </foreignObject>
 <path d="M460 180h270v30H460z" fill="none" pointer-events="all" stroke="gray"/>
 <foreignObject height="100%" pointer-events="none" requiredFeatures="http://www.w3.org/TR/SVG11/feature#Extensibility" style="overflow:visible;text-align:left" width="100%">
  <div style="display:flex;align-items:unsafe center;justify-content:unsafe flex-start;width:268px;height:1px;padding-top:195px;margin-left:462px" xmlns="http://www.w3.org/1999/xhtml">
   <div data-drawio-colors="color: rgb(0, 0, 0);" style="box-sizing:border-box;font-size:0;text-align:left">
    <div style='display:inline-block;font-size:14px;font-family:"Fira Code";color:#000;line-height:1.2;pointer-events:all;white-space:normal;overflow-wrap:normal'>
     <div style="font-size:14px">
      <font color="gray" style="font-size:14px">
       <span style="font-size:14px">
        + serviceMethod(specialDta)
       </span>
      </font>
     </div>
    </div>
   </div>
  </div>
 </foreignObject>
 <path d="M290 250v-40" fill="none" pointer-events="stroke" stroke="gray" stroke-dasharray="6 6" stroke-miterlimit="10" stroke-width="2"/>
 <path d="M95 250h380l10 10v40H95v-50Z" fill="#333" pointer-events="all" stroke="gray" stroke-miterlimit="10"/>
 <path d="M475 250v10h10Z" fill-opacity=".05" pointer-events="all"/>
 <path d="M475 250v10h10" fill="none" pointer-events="all" stroke="gray" stroke-miterlimit="10"/>
 <foreignObject height="100%" pointer-events="none" requiredFeatures="http://www.w3.org/TR/SVG11/feature#Extensibility" style="overflow:visible;text-align:left" width="100%">
  <div style="display:flex;align-items:unsafe center;justify-content:unsafe flex-start;width:388px;height:1px;padding-top:275px;margin-left:97px" xmlns="http://www.w3.org/1999/xhtml">
   <div data-drawio-colors="color: #808080;" style="box-sizing:border-box;font-size:0;text-align:left">
    <div style='display:inline-block;font-size:14px;font-family:"Fira Code";color:gray;line-height:1.2;pointer-events:all;white-space:normal;overflow-wrap:normal'>
     specialData = convertToServiceFormat(data)
     <br style="font-size:14px"/>
     return adaptee.serviceMethod(specialData)
    </div>
   </div>
  </div>
 </foreignObject>
</svg>

<svg height="302px" version="1.1" viewBox="-0.5 -0.5 732 302" width="732px" xmlns="http://www.w3.org/2000/svg" xmlns:xlink="http://www.w3.org/1999/xlink"><defs/><path d="M 160 38 L 180 38 L 195.53 37.61" class="none-stroke" stroke-miterlimit="10" stroke-width="2"/><path d="M 185.92 43.85 L 197.76 37.56 L 185.62 31.86" class="none-stroke" stroke-miterlimit="10" stroke-width="2"/><rect height="50" class="none-stroke" width="160" x="0" y="13"/><foreignObject class="leftdiv" ><div class="flexcenter flexzero" style="width:158px;padding-top:38px;margin-left:1px" xmlns="http://www.w3.org/1999/xhtml"><div class="centerdiv"><div class="normaldiv">Client<br/></div></div></div></foreignObject><rect height="50" class="none-stroke" width="180" x="200" y="0"/><foreignObject class="leftdiv" ><div class="flexcenter flexzero" style="width:178px;padding-top:25px;margin-left:201px" xmlns="http://www.w3.org/1999/xhtml"><div class="centerdiv"><div class="normaldiv">&lt;&lt;interface&gt;&gt;<br/>Client Interface<br/></div></div></div></foreignObject><rect height="30" class="none-stroke" width="180" x="200" y="50"/><foreignObject class="leftdiv" ><div class="flexstart flexzero" style="width:178px;padding-top:65px;margin-left:202px" xmlns="http://www.w3.org/1999/xhtml"><div class="leftdiv"><div class="normaldiv"><div>+ method(data)</div></div></div></div></foreignObject><path d="M 290 120 L 290 94.24" class="none-stroke" stroke-dasharray="6 6" stroke-miterlimit="10" stroke-width="2"/><path d="M 290 82.24 L 296 94.24 L 284 94.24 Z" class="none-stroke" stroke-miterlimit="10" stroke-width="2"/><rect height="30" class="none-stroke" width="180" x="200" y="120"/><foreignObject class="leftdiv" ><div class="flexcenter flexzero" style="width:178px;padding-top:135px;margin-left:201px" xmlns="http://www.w3.org/1999/xhtml"><div class="centerdiv"><div class="normaldiv">Adapter<br/></div></div></div></foreignObject><rect height="30" class="none-stroke" width="180" x="200" y="150"/><foreignObject class="leftdiv" ><div class="flexstart flexzero" style="width:178px;padding-top:165px;margin-left:202px" xmlns="http://www.w3.org/1999/xhtml"><div class="leftdiv"><div class="normaldiv"><div>- adaptee:Service</div></div></div></div></foreignObject><rect height="30" class="none-stroke" width="180" x="200" y="180"/><foreignObject class="leftdiv" ><div class="flexstart flexzero" style="width:178px;padding-top:195px;margin-left:202px" xmlns="http://www.w3.org/1999/xhtml"><div class="leftdiv"><div class="normaldiv"><div>+ method(data)</div></div></div></div></foreignObject><rect height="30" class="none-stroke" width="270" x="460" y="120"/><foreignObject class="leftdiv" ><div class="flexcenter flexzero" style="width:268px;padding-top:135px;margin-left:461px" xmlns="http://www.w3.org/1999/xhtml"><div class="centerdiv"><div class="normaldiv">Service<br/></div></div></div></foreignObject><path d="M 455.53 165 L 395.97 165" class="none-stroke" stroke-miterlimit="10" stroke-width="2"/><path d="M 443.76 172 L 457.76 165 L 443.76 158" class="none-stroke" stroke-miterlimit="10" stroke-width="2"/><path d="M 381.97 165 L 388.97 160.88 L 395.97 165 L 388.97 169.12 Z" class="none-stroke" stroke-miterlimit="10" stroke-width="2"/><rect height="30" class="none-stroke" width="270" x="460" y="150"/><foreignObject class="leftdiv" ><div class="flexstart flexzero" style="width:268px;padding-top:165px;margin-left:462px" xmlns="http://www.w3.org/1999/xhtml"><div class="leftdiv"><div class="normaldiv"><div>...</div></div></div></div></foreignObject><rect height="30" class="none-stroke" width="270" x="460" y="180"/><foreignObject class="leftdiv" ><div class="flexstart flexzero" style="width:268px;padding-top:195px;margin-left:462px" xmlns="http://www.w3.org/1999/xhtml"><div class="leftdiv"><div class="normaldiv"><div>+ serviceMethod(specialDta)</div></div></div></div></foreignObject><path d="M 290 250 L 290 210" class="none-stroke" stroke-dasharray="6 6" stroke-miterlimit="10" stroke-width="2"/><path d="M 95 250 L 475 250 L 485 260 L 485 300 L 95 300 L 95 250 Z" class="fill-stroke" stroke-miterlimit="10"/><path d="M 475 250 L 475 260 L 485 260 Z" fill="#000000" fill-opacity="0.05" stroke="none"/><path d="M 475 250 L 475 260 L 485 260" class="none-stroke" stroke-miterlimit="10"/><foreignObject class="leftdiv" ><div class="flexstart flexzero" style="width:388px;padding-top:275px;margin-left:97px" xmlns="http://www.w3.org/1999/xhtml"><div class="leftdiv"><div class="normaldiv">specialData = convertToServiceFormat(data)<br/>return adaptee.serviceMethod(specialData)</div></div></div></foreignObject></svg>
